X:1
T:Fleeing from Fish
M:C|
L: 1/8
R:reel
C:T. S. Macdonald
N:The first measure by Dr. John Turner
K:Am
AAAB c2 e2 | dBgB GABG  | AAAB c2 e2 | aged eAAE  | AAAB c2 e2 | dBGD B,G,G,B, | A,A,A,B, C2 E2 | DB,GB, A,2 A,2 ||
aaag eA A2 | Bdgd BGG^g | abc'b aeed | cGEC D2 D2 | aaag eA A2 | dBGd BGDB,    | A,A,A,B, C2 E2 | DB,GB, A,2 A,2 |]

